X:1
T:Midnight on the Water
T:Midnight on the Water
T:(Play 2A, 1B)
T:Luke Thomasson
C:Luke Thomasson
L:1/8
M:3/4
K:D
V:1 treble 
V:1
 DE |"D" F4 F2 |"D" F4 FE |"D" FA- A3 B |"D" AF D2 DE |"D" F2 d2"G" B2 |"D" A3 F DE | %7
"A7" FB AF EF |"D" D4 :| (3ABc |"D" d3 c de |"D" dc BA Bc |"D" d3 B AF |"D" D4 d2 |"Em" e4 ef | %15
 e2 d2 e2 |"Bm" f3 a fe | dc BA Bc |"G" d3 c de | d2 c2 B2 |"D" A3 B AF |"Bm" D4 DE | %22
"D" F2 d2"G" B2 |"D" A3 F DE |"A7" FB AF EF |"D" D4 || %26

